!! 00000] TT[WS
!!!OTL: Hailian hua
!!!ARE: Asia, China, Shanxi Jingle
!! Ethnic Group: Han
!! WII, 109 (1)
!!!SCT: J0562
!!!YEM: Copyright 1995, estate of Helmut Schaffrath.
**kern
*ICvox
*Ivox
*M2/4
*k[f#c#g#]
*A:
{4ee
8dd
8cc#
=1
2b
=2
4a
8f#
8a
=3
2b}
=4
{8cc#
8ee
4ff#
=5
8aa
4ee
8cc#
=6
4b
8f#
8a
=7
4b
4r}
=8
{8f#
8a
4b
=9
8b
8cc#
8f#
8e
=10
8ee
8cc#
8ee
8ff#
=11
2a}
=12
{8f#
8a
4b
=13
8cc#
4e
8c#
=14
8e
8c#
8e
8f#
=15
2e}
=16
{8ee
16ee
16cc#
8ee
8ff#
=17
2a
=18
8f#
8a
4b
=19
8cc#
4e
8c#
=20
8e
8c#
8e
8f#
=21
2e}
==
!!!AGN: Xiaodiao. Qingge, Sichun
!!!ONB: ESAC (Essen Associative Code) Database: CHINA
!!!AMT: simple duple
!!!AIN: vox
!!!EED: Helmut Schaffrath
!!!EEV: 1.0
*-
